X: 20
T: Miss McLeod's
R: reel
M: 4/4
L: 1/8
K: Amaj
cB |:"A"A2 a2 "D"fefa|"A"c2 (cB) c2 cB  |"D"A2 a2 "D"fefa |"E"B2 (BA) BdcB         |
   |"A"A2 a2 "D"fefa |"A"c2 (cB) c2 (ce)|"D"f2 fg "E7"fefg|"A"(afec) (ec) "E7"BdcB:|]
   |:"A"ABcd eAcA    |"A"c2 (cB) c2 (cB)|"A"ABcd eAcA     |"E"B2 (BA) BdcB         |
   |"A"ABcd eAcA     |c2 (cB) c2 (ce)   |"D"f2 fg "E7"fefg|1"A"afec "E7"BdcB      :|2"A"a4 a2 |]
